X: 32680
T: Polca D'A Estierna
R: polka
M: 2/4
K: Amajor
A/c/|:A/c/A/c/ c/B/G/A/|B/c/d/B/ cA|AA/c/ A/c/A/c/|
c/B/G/A/ B/c/d/B/|A3 A/c/:|[M:3/4]|:e2 e2 de|f2 f2 Bc|
d2 d2 cd|e4 AB|c2c2 Bc|d2 d2 fe|
d2 c2 Bc|1 A4 Ac:|2 A2 A4||[M:2/4]|:e/e/e/e/ e/A/A/B/|
c/A/B/c/ ed|d/e/d/e/ d/B/G/A/|B/c/d/B/ cc|e/e/e/e/ e/A/A/B/|
c/A/B/c/ ed|B/d/c/d/ c/B/A/c/|B/A/G/B/ A||

